assets/icons/utility/turn_off_notifications.svg

<?xml version="1.0"?><svg xmlns="http://www.w3.org/2000/svg" width="52" height="52" viewBox="0 0 52 52"><path fill="#fff" d="m23.4 26.6c0.6 0.6 1.4 0.6 2 0l21.4-19.7c0.4-0.7 0.3-1.9-1.2-1.9h-42.2c-1.1 0-2 1.1-1.2 2l21.2 19.6z m6.7 11c0.5-5.6 5-10.2 10.7-10.8 0.5 0 1-0.1 1.4-0.1 1.8 0 3.4 0.4 4.9 1v-12.4c0-1-1.2-1.5-1.9-0.8l-16.6 15.4c-1.1 1-2.6 1.6-4.1 1.6s-3-0.6-4.1-1.6l-16.6-15.4c-0.8-0.7-1.9-0.2-1.9 0.8v19.6c0 2.5 2.1 4.6 4.6 4.6h23.7c-0.1-0.6-0.1-1.3-0.1-1.9z m12-6.6c-4.4 0-8 3.6-8 8s3.6 8 8 8 8-3.6 8-8-3.6-8-8-8z m6 9.6c0 0.2-0.2 0.4-0.5 0.4h-11c-0.3 0-0.5-0.2-0.5-0.4v-3.2c0-0.2 0.2-0.4 0.5-0.4h11c0.3 0 0.5 0.2 0.5 0.4v3.2z"></path></svg>

<svg xmlns="http://www.w3.org/2000/svg" x="0px" y="0px"
	 width="52px" height="52px" viewBox="0 0 52 52" enable-background="new 0 0 52 52" xml:space="preserve">
<path fill="#FFFFFF" d="M23.4,26.6c0.6,0.6,1.4,0.6,2,0L46.8,6.9C47.2,6.2,47.1,5,45.6,5H3.4c-1.1,0-2,1.1-1.2,2L23.4,26.6z"/>
<path fill="#FFFFFF" d="M30.1,37.6c0.5-5.6,5-10.2,10.7-10.8c0.5,0,1-0.1,1.4-0.1c1.8,0,3.4,0.4,4.9,1c0-4.2,0-9.3,0-12.4
	c0-1-1.2-1.5-1.9-0.8L28.6,29.9c-1.1,1-2.6,1.6-4.1,1.6s-3-0.6-4.1-1.6L3.8,14.5c-0.8-0.7-1.9-0.2-1.9,0.8v19.6
	c0,2.5,2.1,4.6,4.6,4.6h23.7C30.1,38.9,30.1,38.2,30.1,37.6z"/>
<path fill="#FFFFFF" d="M42.1,31c-4.4,0-8,3.6-8,8s3.6,8,8,8s8-3.6,8-8S46.5,31,42.1,31z M48.1,40.6c0,0.2-0.2,0.4-0.5,0.4h-11
	c-0.3,0-0.5-0.2-0.5-0.4c0-0.4,0-2.9,0-3.2c0-0.2,0.2-0.4,0.5-0.4h11c0.3,0,0.5,0.2,0.5,0.4C48.1,37.8,48.1,40.2,48.1,40.6z"/>
</svg>
